packages/calcite-ui-icons/icons/collapse-relationships-32.svg

<?xml version="1.0" encoding="UTF-8"?><svg id="icons" xmlns="http://www.w3.org/2000/svg" viewBox="0 0 32 32"><defs><style>.cls-1{fill:none;}</style></defs><path d="M7.04492,6.45044c.57727-.45831.95508-1.15753.95508-1.95044,0-1.37891-1.12109-2.5-2.5-2.5s-2.5,1.12109-2.5,2.5c0,.79291.37781,1.49213.95508,1.95044-1.28802,1.75043-1.94508,5.66602-1.94508,9.54956s.65705,7.79913,1.94508,9.54956c-.57727.45831-.95508,1.15753-.95508,1.95044,0,1.37891,1.12109,2.5,2.5,2.5s2.49-1.12109,2.49-2.5c0-.79291-.36781-1.49213-.94508-1.95044,1.28802-1.75043,1.95508-5.66602,1.95508-9.54956s-.66705-7.79913-1.95508-9.54956ZM7,28c0,.55225-.44769,1-1,1h-1c-.55231,0-1-.44775-1-1v-1c0-.55231.44769-1,1-1h1c.55231,0,1,.44769,1,1v1ZM6.14325,25.09436c-.20654-.05536-.41943-.09436-.64325-.09436s-.43671.039-.64325.09436c-.91278-1.0929-1.85675-4.35529-1.85675-9.09436s.94397-8.00146,1.85675-9.09436c.20654.05536.41943.09436.64325.09436s.43671-.039.64325-.09436c.91278,1.0929,1.85675,4.35529,1.85675,9.09436s-.94397,8.00146-1.85675,9.09436ZM28,25.05054V6.94946c1.13995-.23224,2-1.24182,2-2.44946,0-1.37891-1.12109-2.5-2.5-2.5s-2.5,1.12109-2.5,2.5c0,1.20764.86005,2.21722,2,2.44946v18.10107c-1.13995.23224-1.99,1.24182-1.99,2.44946,0,1.37891,1.11109,2.5,2.49,2.5s2.49-1.12109,2.49-2.5c0-1.20764-.85005-2.21722-1.99-2.44946ZM29,28c0,.55225-.44769,1-1,1h-1c-.55231,0-1-.44775-1-1v-1c0-.55231.44769-1,1-1h1c.55231,0,1,.44769,1,1v1ZM19.35352,12.64648l3.85352,3.85352-3.85352,3.85352-.70703-.70703,2.64648-2.64648h-10.29297v-1h10.29297l-2.64648-2.64648.70703-.70703Z"/><rect class="cls-1" x="0" width="32" height="32"/></svg>

<svg xmlns="http://www.w3.org/2000/svg" viewBox="0 0 32 32"><path d="M7.045 6.45A2.486 2.486 0 0 0 8 4.5C8 3.121 6.879 2 5.5 2S3 3.121 3 4.5c0 .793.378 1.492.955 1.95C2.667 8.2 2.01 12.116 2.01 16s.657 7.8 1.945 9.55A2.486 2.486 0 0 0 3 27.5C3 28.879 4.121 30 5.5 30s2.49-1.121 2.49-2.5c0-.793-.368-1.492-.945-1.95C8.333 23.8 9 19.884 9 16s-.667-7.8-1.955-9.55zM7 28a1 1 0 0 1-1 1H5a1 1 0 0 1-1-1v-1a1 1 0 0 1 1-1h1a1 1 0 0 1 1 1v1zm-.857-2.906C5.937 25.04 5.723 25 5.5 25s-.437.039-.643.094C3.944 24.001 3 20.74 3 16s.944-8.001 1.857-9.094c.206.055.42.094.643.094s.437-.039.643-.094C7.056 7.999 8 11.26 8 16s-.944 8.001-1.857 9.094zM28 25.051V6.949c1.14-.232 2-1.241 2-2.449C30 3.121 28.879 2 27.5 2S25 3.121 25 4.5c0 1.208.86 2.217 2 2.45v18.1a2.495 2.495 0 0 0-1.99 2.45c0 1.379 1.111 2.5 2.49 2.5s2.49-1.121 2.49-2.5c0-1.208-.85-2.217-1.99-2.45zM29 28a1 1 0 0 1-1 1h-1a1 1 0 0 1-1-1v-1a1 1 0 0 1 1-1h1a1 1 0 0 1 1 1v1zm-9.646-15.354l3.853 3.854-3.853 3.854-.708-.708L21.293 17H11v-1h10.293l-2.647-2.646.708-.708z"/><path fill="none" d="M0 0h32v32H0z"/></svg>
